X:433
T:Margaret's Waltz
M:3/4
L:1/8
K:G
GE |: D3 EGA | B4 GB | AG E2 GB | A4 GE | 
D3 EGA | B d3 GA | B2 B2 A2 | G4 GE | 
D3 EGA | B4 GB | AG E2 GB | A4 GE | 
D3 EGA | B d3 GA | B2 B2 A2 | G4 Bc || 
d2 e2 f2 | g2 f2 g2 | ed c2 e2 | d4 BA | 
G3 A Bc | d2 B2 d2 | ed c2 B2 | A4 Bc | 
d2 e2 f2 | g2 f2 e2 | d2 c2 B2 | A4 GE | 
D3 EGA | B d3 GA | B2 B2 A2 | G6 || 

